!!!COM:	Johannes Ockeghem
!!!CDT:	~1425-1497/02/06
!!!OTL:	Ma bouche rit
!!!AGN:	Chanson; Virelai
!!!SCT:	Ock3011
!!!SCA:	Ock3011
!!!voices:	3
**kern	**kern	**kern
*staff3	*staff2	*staff1
*Ivox	*Ivox	*Ivox
*I"Contra	*I"Tenor	*I"Discantus
*I'C	*I'T	*I'D
*>[A,B,B1,B,B2,A,A]	*>[A,B,B1,B,B2,A,A]	*>[A,B,B1,B,B2,A,A]
*>norep[A,B,B2,A]	*>norep[A,B,B2,A]	*>norep[A,B,B2,A]
*>A	*>A	*>A
*clefGv2	*clefGv2	*clefG2
*k[]	*k[]	*k[]
*M2/1	*M2/1	*M2/1
*met(C)	*met(C)	*met(C)
!!incipit: 6
=1-	=1-	=1-
!!LO:TX:Z=16:t=Form&colon; virelai (AbbaA)
1A	0r	0a
1A	.	.
=2	=2	=2
1A	0r	1e
[1c	.	1e
=3	=3	=3
2c\]	0A	1a
2A/	.	.
2.c\	.	1a
4d\	.	.
=4	=4	=4
0e	1E	1g
.	1E	1g
=5	=5	=5
1.e	1A	1cc
.	1A	1cc
2c\	.	.
=6	=6	=6
1d	2.G/	1b
.	4F/	.
1r	2E/	2cc\
.	2D/	[2dd\
=7	=7	=7
1r	2G/	2dd\]
.	2A/	2cc\
[1e	2.c\	1a
.	4B\	.
=8	=8	=8
2e\]	1G	1b
4d\	.	.
4c\	.	.
[1c	1r	1e
=9	=9	=9
1c]	0e	1r
1c	.	1g
=10	=10	=10
1r	1.d	1a
1G	.	1b
.	4c\	.
.	4B\	.
=11	=11	=11
1A	1A	1.cc
1F	1A	.
.	.	4b\
.	.	4a/
=12	=12	=12
2r	1G	1b
1G	.	.
.	2r	1e
[2C/	[2G/	.
=13	=13	=13
2C/]	2G/]	1e
2C/	2A/	.
1G	1B	1d
=14	=14	=14
2r	1c	1e
2C/	.	.
1D	1A	1f
=15	=15	=15
2E/	2G/	1.g
1C	1E	.
[2c\	2C/	2e/
=16	=16	=16
2c\]	1D	1f
2B\	.	.
1c	1C	1e
=17	=17	=17
1f	0r	1a
2d\	.	2f/
[2e\	.	[2g/
=18	=18	=18
4e\]	0r	2g/]
4d\	.	.
1c	.	2e/
.	.	1d
2B\	.	.
=19	=19	=19
2c\	1e	1c
1A	.	.
.	2c\	1r
[2G/	[2d\	.
=20	=20	=20
2G/]	2d\]	1r
2d\	2B\	.
2c\	1A	1cc
[2e\	.	.
=21	=21	=21
2e\]	1G	1.b
2d\	.	.
1B	2r	.
.	2G/	2g/
=22	=22	=22
2.A/	2.c\	1a
4B\	4d\	.
1c	1e	2.g/
.	.	4a/
=23	=23	=23
1G	2.d\	2b\
.	.	4a/
.	4c\	4b\
1F	1A	1cc
=24	=24	=24
2r	1G	2b\
2.E/	.	1g
.	[1c	.
4C/	.	.
[2F/	.	[2a/
=25	=25	=25
2F/]	2c\]	2a/]
2G/	2B\	1g
1D	1A	.
.	.	2f#i/
=26	=26	=26
2r	1G	0g
1E	.	.
.	2r	.
2C/	[2c\	.
=27	=27	=27
2.F/	2c\]	1r
.	2d\	.
4E/	.	.
1C	1e	[1g
=28	=28	=28
0r	1c	1g]
.	1f	1a
=29	=29	=29
1C	2e\	2g/
.	2c\	1cc
1G	1d	.
.	.	2b\
=30	=30	=30
1A	1c	1cc
[1G	1r	2b\
.	.	2cc\
=31	=31	=31
1G]	1B	1dd
2r	1c	2cc\
2A/	.	[2a/
=32	=32	=32
2F/	2d\	2a/]
2G/	1d	4g/
.	.	4f/
1A	.	1e
.	2c#i\	.
=33	=33	=33
2B\	1d	2d/
2.d\	.	2f/
.	2r	1e
4c\	.	.
2A/	2c\	.
=34	=34	=34
2B\	2d\	2r
1d	2f\	2a/
.	1e	2b\
2c\	.	2cc\
=35	=35	=35
2B\	1.d	2.dd\
1G	.	.
.	.	4cc\
.	.	4b\
.	.	4a/
2A/	2c\	[2a/
=36	=36	=36
1E	1B	2a/]
.	.	2g#i/
2F/	1A	1a
2D/	.	.
=37	=37	=37
2C/	2.E/	0r
2G/	.	.
.	4F/	.
2E/	2G/	.
2F/	2A/	.
=38	=38	=38
1D	1B	1r
1C	1c	1e
=39	=39	=39
0r	2B\	2g/
.	2c\	2a/
.	2.d\	1b
.	4c\	.
=40	=40	=40
0e	1A	1cc
.	2G/	2b\
.	2A/	2cc\
=41	=41	=41
1d	2B\	2.dd\
.	2G/	.
.	.	4cc\
2r	2A/	1a
2d\	2F/	.
=42	=42	=42
2e\	1E	1g
2c\	.	.
1d	1D	2r
.	.	[2a/
=43	=43	=43
2.c\	1F	2a/]
.	.	4g/
4A/	.	4f/
2B\	2G/	1e
2c\	2A/	.
=44	=44	=44
2G/	2B\	2d/
2r	2c\	2e/
2.c\	1A	4f/
.	.	4e/
.	.	4d/
8B/L	.	4c/
8A/J	.	.
=45	=45	=45
2G/	2E/	2B/
1B	2G/	1e
.	1F	.
2A/	.	2d/
=46	=46	=46
0B;l	0E;l	0e;l
!!LO:TX:rj:i:t=fine
=47||	==47||	==47||
*>B	*>B	*>B
1.d	0B	0r
2c\	.	.
=48	=48	=48
1A	1c	0r
1A	1c	.
=49	=49	=49
0G	1.d	0b
.	2c\	.
=50	=50	=50
2.c\	1A	1cc
4d\	.	.
1e	1A	1cc
=51	=51	=51
1d	2D/	1dd
.	1G	.
2B\	.	1dd
2c\	2A/	.
=52	=52	=52
1d	1B	1g
1e	2.c\	1a
.	4B\	.
=53	=53	=53
2r	1G	1b
1E	.	.
.	1r	2.cc\
2F/	.	.
.	.	4b\
=54	=54	=54
1G	1r	1g
1C	[1c	1r
=55	=55	=55
0F	2c\]	0a
.	2F/	.
.	[1F	.
=56	=56	=56
1.c	1F]	1a
.	1F	1a
[2A/	.	.
=57	=57	=57
2A/]	1F	1.a
2B\	.	.
[1c	[1C	.
.	.	2g/
=58	=58	=58
1c]	1C]	1e
1C	1c	1e
=59	=59	=59
2.G/	1B	1d
4F/	.	.
1E	1c	1e
=60	=60	=60
1D	1d	1f
1E	1B	1g
=61	=61	=61
1C	1c	1e
1F	1A	1c
=62	=62	=62
0r	2r	2e/
.	2A/	2f/
.	2G/	1g
.	[2c\	.
=63	=63	=63
0r	4c\]	2e/
.	4B\	.
.	2c\	1f
.	2d\	.
.	2B\	2d/
=64	=64	=64
1C	2.c\	1e
.	4d\	.
2.c\	1e	1A
4d\	.	.
=65	=65	=65
1e	1A	1r
1A	1r	[1cc
=66	=66	=66
1r	0A	1cc]
1e	.	1cc
=67	=67	=67
1c	1A	1cc
1d	1G	1b
=68	=68	=68
2r	2A/	2cc\
2d\	2G/	2dd\
1e	2c\	2cc\
.	2d\	4b\
.	.	4a/
!!LO:BAR:start=1
=69	=69	=69
*>B1	*>B1	*>B1
!	!LO:N:vis=1	!
2.E;/	2.e;	2.g;/
!!LO:BAR:stop=1:start=2
=70:|!	=70:|!	=70:|!
*>B2	*>B2	*>B2
2.E/	1e	2.g/
4F/	.	4a/
2G/	1e	2b\
[2A/	.	[2cc\
!!LO:BAR:disc=2
=71	=71	=71
2A/]	1e	2cc\]
2G/	.	4b\
.	.	4a/
2A/	2c\	2cc\
2B\	2d\	2b\
=72	=72	=72
2E/	2e\	2g/
2F/	2A/	1a
1E	1B	.
.	.	2g#i/
=73	=73	=73
0el	0Al	0al
==||	==||	==||
*-	*-	*-
!!!RDF**kern: l=long note in original notation
!!!RDF**kern: i=editorial accidental
!!!RDF**kern: V=start of tuplet marker
!!!RDF**kern: Z=end of tuplet marker
!!!ENC:	Chris Gage 06-25-2012
!!!END:	2012/08/06/
!!!EED:	Jesse Rodin
!!!EEV:	2012/08/07/
!!!ONB:	Translated from MusicXML and edited on 2012/08/07/ by Craig Sapp
!!muse2ps: C^@{COM}^i2I150v90,90,150Q16
